X: 909
T: Peat Fire Flame
R: March
M: 4/4
L: 1/4
K: Em
|:"Em"E3/2F/2 GF|ED B2|"Am"BA AG/2A/2|"Bm"BA A2|"Em"E3/2F/2 GF|ED B3/2A/2|\
GE "Bm"FD|"Em"E2 E2:|
|:"G"G3/2A/2 Bg/2f/2|ed B2|"Am"BA AG/2A/2|"D"BA A2|"G"G3/2A/2 Bg/2f/2|ed B3/2A/2|\
"Em"GE "Bm"FD|"Em"E2 E2:|

%%newpage
%%textfont * 14
%%begintext justify
%%Tunes for Specific Dances
%%endtext
